X:1
T:Ich wandelte unter den Bäumen
T:Ich wandelte unter den Bäumen
T:Liederkreis Op. 24 n° 3
T:Robert Schumann
T:Heinrich Heine
C:Robert Schumann
Z:Heinrich Heine
%%score 1 { ( 2 3 ) | ( 4 5 ) }
L:1/8
Q:1/4=60
M:4/4
K:B
V:1 treble nm="Stimme\nVoice"
V:2 treble nm="Piano"
V:3 treble 
V:4 bass 
V:5 bass 
V:1
"^Ziemlich langsam" z8 | z8 | z8 | z4 z2 z F | B2 B B A2 B c | c4 F2 F2 | B3 B (BAB3/2) c/ | %7
w: |||Ich|wan- del- te un- ter den|Bäu- men mit|mei- nem Gram _ _ al-|
 c6 F2 | d3 d d2 A2 | c4 B2 A2 | (3G2 B2 d2[Q:1/4=56]"^ritard."[Q:1/4=56]"_ritard." g3 f | e4 z4 | %12
w: lein; da|kam das al- te|Träu- men, und|schlich mir ins Herz hin-|ein.|
[Q:1/4=52]"_ritard." z4 !fermata!z2 z[Q:1/4=60]"^T" F | B2 B B A2 B c | c4 F2 F2 | %15
w: Wer|hat euch dies Wört- lein ge-|leh- ret, ihr|
 B2 B B (BA) B3/2 c/ | c6!p! F2 | d2 d d d3 A | c4 B2 A2 | %19
w: Vög- lein in luf- * ti- ger|Höh'? Schweigt|still! wenn mein Herz es|hö- ret, dann|
[Q:1/4=56]"^ritard."[Q:1/4=56]"_ritard." (3G2 B2 d2 (3g2 g2 f2 | e4 z4 | %21
w: tut es noch ein- mal so|weh.|
[Q:1/4=52]"_rit." z4[Q:1/4=50]"^Langsamer" !fermata!z2!p! B2 | (3B2 B2 B2 (3B2 B2 B2 | %23
w: |kam ein Jung- fräu- lein ge-|
 =d4 B2[Q:1/4=60]"^T" =A2 | =A2 A2[Q:1/4=48]"^rit."[Q:1/4=56]"_rit." (3(A2 B2) =c2 | %25
w: gan- gen, die|sang es im- * mer-|
 B4 z2[Q:1/4=60]"^T" B2 | (3B2 B2 B2 (3B2 B2 B2 | =d4 B2 =A2 | %28
w: fort, da|ha- ben wir Vög- lein ge-|fan- gen das|
 =A2 A2[Q:1/4=56]"^rit."[Q:1/4=56]"_rit." (3(A2 B2) =c2 | B6 !fermata!z!mf![Q:1/4=56]"^T" F | %30
w: hüb- sche, gold- * ne|Wort." Das|
 B2 B B (A2 B) c | c4 F2 z F | B3 B (BAB3/2) c/ | c6 F2 | d2 d d d2 A A | c4 B2 z2 | %36
w: sollt ihr mir nicht _ er-|zäh- len, Ihr|Vög- lein wun- * * der-|schlau; ihr|wollt mei- nem Kum- mer mir|steh- len,|
 G2 G G[Q:1/4=52]"^ritard."[Q:1/4=56]"_ritard." B2 A A | (^^F4 ^F2) z2 | E2 E E G2 F F | %39
w: ich a- ber Nie- man- dem|trau', _|ich a- ber Nie- man- dem|
 D4[Q:1/4=60]"^T" z4 | z8 | z8 |[Q:1/4=52]"_ritard." z8 | z8 | z8 |] %45
w: trau'.||||||
V:2
!p!!>(! B4 A e2!>)! d |!>(! [Bd]4!>)! [EFAc]!<(! [Gg]2 [^^F^^f]!<)! |!<(! ^^F c2 ^B!<)! B f2 ^e | %3
 =B d2 c BAGF |!p! (.[DFB]2 .[DFB].[DFB]) (.[EFA]2 .[EFA]!>(!.[EFA])!>)! | [EFc]8 | %6
 (.[DFB]3 .[DFB]) (.[DFB].[EFA].[EFB]>)[EFc] | ([EFc]8 | (d6-) dA | c4 B2 A2) | %10
{/D} (3G2 B2 d2 g3 f | [Be-]4 c3 B | [Ae]4 !fermata!G3 F | %13
 (.[DFB]2 .[DFB].[DFB]) (.[EFA]2 .[EFA].[EFA]) |!>(! [EFc]8!>)! | %15
 (.[DFB]2 .[DFB].[DFB]) (.[EFB].[EFA].[EFB]>[EFc]) | [EFc]6 (F2 | d3 d d3 A | c4 B2 A2) | %19
{/D} (3G2 B2 d2- g3 f | [Be-]4 c3 B | [A-e]4 !fermata![=GA]2!pp! [=gb]2 | %22
 [=d=gb]2 [dgb]2 (3[dgb]2 [dgb]2 [dgb]2 | [=d=g=d']4 [dgb]2 [eg=a]2 | %24
 [e=g=a]2 [ega]2 (3[ega]2 [egb]2 [eg=c']2 | [=d=gb]6 [dgb]2 | %26
 [=d=gb]2 [dgb]2 (3[dgb]2 [dgb]2 [dgb]2 | [=d=g=d']4 [dgb]2 [eg=a]2 | %28
 [e=g=a]2 [ega]2 (3[ega]2 [egb]2 [eg=c']2 | [=d=gb]6 !fermata!z!mf! F | %30
 (.[^DFB]2 .[DFB].[DFB]) (.[EFA]2 .[EFB]!>(!.[EFc])!>)! | [EFc]6 z F | %32
 (.[DFB]3 .[DFB]) (.[DFB].[EFA].[EFB]>)[EFc] | [EFc]6 F2 | d3 d d3 A | c4 B2 z2 | %36
!p! !arpeggio![EG]2 z2{/E} (.[EB] z z .A) | (.[D^^F]2 z2 .[D^F]2) z2 | [CE]2 z2 ^G3 F | %39
!mf!!>(!{/[B,DF]} [B,DFB]4!>)! [EF]4 |!>(!{/[DFB]} [DFBd]4!>)! ([EGAc] [Gg]2 [^^F^^f]) | %41
 ^^F c2 ^B B f2 ^e | (=B d2 c BAGF) |!>(! ([EAce]8!>)! | [DBd]8) |] %45
V:3
 [DF]4 [EF]4 | [DF]4 x4 | [^^F^^f]4 [^F^f]2 x2 | [^E^f]4 [=Ec=e]2 x2 | x8 | x8 | x8 | x8 | D8 | %9
{/D} D8 | x4{/d} [B-d]4 | x4 E4- | E4 x4 | x8 | x8 | x8 | x8 | D8 |{/D} D8 | x4 [B-d]4 | x4 E4- | %21
 E4 x2 =d2 | z8 | x8 | x8 | x8 | x8 | x8 | x8 | x8 | x8 | x8 | x8 | x8 |{/D} D8 | D6 x2 | x8 | x8 | %38
 x4{/[A,E]} [A,E]4 | x4 (A e2 d) | x8 | [^^F^^f]4 [^F^f]2 x2 | [^E^e]4 [=Ec=e]4 | x8 | x8 |] %45
V:4
 (.[B,,F,]4 .[C,F,]4) | ([B,,F,]4 [C,F,]3 ^^F,) | (^^F, C2 ^B,) (B, ^F2 ^E) | (=B, D2 C B,A,G,F,) | %4
 (.[B,,F,]2 .[B,,F,].[B,,F,]) (.[C,F,]2 .[B,,F,].[A,,F,]) | [A,,F,]8 | %6
 (.[B,,F,]3 .[B,,F,]) (.[B,,F,].[C,F,].[B,,F,]>)[A,,F,] | [A,,F,]8 | !arpeggio!F,6 ^^F,2 | %9
 !arpeggio!G,6 A,2 |!ped! !arpeggio!B,6 B,2!ped-up! | %11
!ped! (3!arpeggio!B,2 C2[I:staff -1] E2[I:staff +1] z2 G,2!ped-up! | %12
!ped! (3!arpeggio!F,2 A,2[I:staff -1] E2[I:staff +1] !fermata!z4!ped-up! | %13
 (.[B,,F,]2 .[B,,F,].[B,,F,]) (.[C,F,]2 .[B,,F,].[A,,F,]) | [A,,F,]8 | %15
 (.[B,,F,]2 .[B,,F,].[B,,F,]) (.[B,,F,].[C,F,].[B,,F,]>[A,,F,]) | [A,,F,]8 | !arpeggio!F,6 ^^F,2 | %18
 !arpeggio!G,6 A,2 | !arpeggio!B,6 B,2 | (3!arpeggio!B,2 C2[I:staff -1] E2-[I:staff +1] z2 G,2 | %21
!ped! F,-A,-C-E- !fermata![F,A,CE]2[K:treble] [=GB]2!ped-up! | [=GB]2 [GB]2 (3[GB]2 [GB]2 [GB]2 | %23
 [=GB]4 [GB]2 [=CG=A]2 | [=C=G=A]2 [CGA]2 (3[CGA]2 [B,GB]2 [=A,G=c]2 | [=GB]6 [GB]2 | %26
 [=GB]2 [GB]2 (3[GB]2 [GB]2 [GB]2 | [=GB]4 [GB]2 [=CG=A]2 | %28
 [=C=G=A]2 [CGA]2 (3[CGA]2 [B,GB]2 [=A,G=c]2 | [=GB]4 z4[K:bass] | %30
 (.[B,,F,]2 .[B,,F,].[B,,F,]) (.[C,F,]2 .[B,,F,].[A,,F,]) | [A,,F,]6 z F, | %32
 (.[B,,F,]3 .[B,,F,]) (.[B,,F,].[C,F,].[B,,F,]>)[A,,F,] | [A,,F,]6 F,2 | !arpeggio!F,6 ^^F,2 | %35
 [B,,G,]6 z2 | !arpeggio![C,G,]2 z2 (.[C,B,] z z .A,) | (.[D,A,]2 z2 .[^B,,=A,]2) z2 | %38
 (G,3 =G,) [F,,F,]3 F, | [B,,F,]4 [C,F,]4 | [B,,F,]4 ([C,F,]3 ^^F,) | (^^F, C2 ^B,) (B, ^F2 ^E) | %42
 (=B, D2 C B,A,G,F,) | C6- C^^C | F,8 |] %45
V:5
 x8 | x8 | D,4 [G,^B,]4 | C,4 [F,C]4 | x8 | x8 | x8 | x8 | B,,8- | B,,8 | B,,8 | C,8 | F,,4 x4 | %13
 x8 | x8 | x8 | x8 | B,,8 | B,,8 | B,,8 | C,8 | F,,4 x2[K:treble] x2 | x8 |{/B,} (B,4{/=D} D2) x2 | %24
 x8 |{/B,} (B,4 =D4-) | D8 |{/B,} (B,4{/=D} D2) x2 | x8 |{/B,} (B,4 =D2) z[K:bass] F, | x8 | x8 | %32
 x8 | x8 | B,,8 | x8 | x8 | x8 | C,2 z2 x4 | x8 | x8 | D,4 [G,^B,]4 | C,4 [F,C]4 | [B,,F,-]8 | %44
 x8 |] %45

